X: 3
T: The Bloom Of Youth
R: reel
M: 4/4
L: 1/8
K: Gmaj
G2 DG EGDF | G2 BG AGEF | G2 DG EGBc | dBcA BGAF |G2 DG EGDF | G2 BG AGEF | G2 DG EGBc | dBAc BG G2 :||:gd (3ddd edcA | BdAc BE (3EEE | gd (3ddd edcA | dcAc BG G2 |gd (3ddd edcA | BdAc BE E2 | cBcd efge | dBAc BG G2:|


Tune 1119	Setting 14382

